!!!COM: Alexandrov, Alexandr Vasilievich
!!!CDT: 1883-1946
!!!OTL: National Anthem, Russian Federation
!!!ENC: Davis, Matthew J.
!!Vocal Line Only
**kern
*clefG2
*k[]
*C:
*M2/4
=1-
1r
=2
4r
8r
8g
==!|:3
4cc
8.g
16a
=4
4b
8e
8e
=5
4a
8.g
16f
=6
4g
8c
8c
=7
4d
8d
8e
=8
4f
8f
8g
=9
4a
8b
8cc
=10
[4dd
8dd]
8g
=11
4ee
8.dd
16cc
=12
4dd
8b
8g
=13
4cc
8.b
16a
=14
4b
8e
8e
=15
4a
8g
8f
=16
4g
8c
8c
=17
4cc
8.b
16a
=18
2g
==19
*M[4/4
2ee
8dd
8cc
8b
8cc
=20
4.dd
8g
2g
=21
2cc
8b
8a
8g
8a
=22
4.b
8e
4e
4r
=23
4cc
8.a
16b
4cc
8.a
16b
=24
4cc
8a
8cc
[4ff
8ff]
8r
=25
2ff
8ee
8dd
8cc
8dd
=26
4.ee
8cc
2cc
=27
2dd
8cc
8b
8a
8b
=28
4.cc
8a
2a
=29
4cc
8b
8a
4g
8.c
16c
=30
2g
4a
4b
=31
[2cc
4cc]
4r
==|!
*-
